frontend/src/assets/Dermatologist.svg

<svg width="127" height="126" viewBox="0 0 127 126" fill="none" xmlns="http://www.w3.org/2000/svg">
<circle cx="63.5668" cy="62.8325" r="62.8325" fill="url(#paint0_linear_4741_2341)"/>
<path d="M78.7272 46.3258C67.4154 46.3258 42.9479 43.3848 42.9479 43.3848C42.9479 43.3848 38.0556 48.7664 35.2276 51.5943C29.9591 56.8628 30.4173 63.5311 29.7188 71.8481C30.5869 94.9638 45.3856 113.382 63.5722 113.382C81.6542 113.382 96.3935 95.1703 97.4087 72.2327C96.4132 61.9673 89.5017 46.3258 78.7272 46.3258Z" fill="#F7DECE"/>
<path d="M63.5737 102.069C56.9364 102.069 53.4637 98.7887 53.0904 98.4126C52.5564 97.8861 52.2534 97.169 52.2481 96.4191C52.2428 95.6692 52.5356 94.9479 53.0621 94.4138C53.5887 93.8798 54.3057 93.5768 55.0557 93.5715C55.8056 93.5662 56.5269 93.8591 57.0609 94.3856C57.2051 94.5185 59.3402 96.4132 63.5737 96.4132C67.8693 96.4132 70.0016 94.4619 70.0921 94.3799C70.6352 93.8711 71.3557 93.5949 72.0997 93.6102C72.8437 93.6256 73.5522 93.9312 74.0739 94.4619C74.5913 94.9903 74.8796 95.7012 74.8764 96.4407C74.8733 97.1802 74.5788 97.8887 74.0569 98.4126C73.6836 98.7887 70.2109 102.069 63.5737 102.069ZM66.4016 87.9293H60.7457C59.9957 87.9293 59.2764 87.6314 58.746 87.1011C58.2157 86.5707 57.9177 85.8514 57.9177 85.1014C57.9177 84.3514 58.2157 83.6321 58.746 83.1017C59.2764 82.5714 59.9957 82.2734 60.7457 82.2734H66.4016C67.1516 82.2734 67.8709 82.5714 68.4013 83.1017C68.9316 83.6321 69.2296 84.3514 69.2296 85.1014C69.2296 85.8514 68.9316 86.5707 68.4013 87.1011C67.8709 87.6314 67.1516 87.9293 66.4016 87.9293Z" fill="#C1694F"/>
<path d="M49.4334 76.6165C48.6834 76.6165 47.9641 76.3186 47.4338 75.7882C46.9034 75.2579 46.6055 74.5386 46.6055 73.7886V68.1326C46.6055 67.3826 46.9034 66.6633 47.4338 66.133C47.9641 65.6026 48.6834 65.3047 49.4334 65.3047C50.1834 65.3047 50.9027 65.6026 51.4331 66.133C51.9634 66.6633 52.2614 67.3826 52.2614 68.1326V73.7886C52.2614 74.5386 51.9634 75.2579 51.4331 75.7882C50.9027 76.3186 50.1834 76.6165 49.4334 76.6165ZM77.713 76.6165C76.963 76.6165 76.2437 76.3186 75.7133 75.7882C75.183 75.2579 74.885 74.5386 74.885 73.7886V68.1326C74.885 67.3826 75.183 66.6633 75.7133 66.133C76.2437 65.6026 76.963 65.3047 77.713 65.3047C78.463 65.3047 79.1823 65.6026 79.7126 66.133C80.243 66.6633 80.5409 67.3826 80.5409 68.1326V73.7886C80.5409 74.5386 80.243 75.2579 79.7126 75.7882C79.1823 76.3186 78.463 76.6165 77.713 76.6165Z" fill="#662113"/>
<path d="M63.5667 23.1211C86.77 23.1211 101.266 40.2415 101.266 54.5086C101.266 68.7728 98.3646 74.4852 95.466 68.7728C92.5645 63.0688 89.6659 54.534 89.6659 54.534C89.6659 54.534 79.8302 60.9054 72.1241 51.6523C72.1241 51.6523 75.1698 68.7728 57.7665 51.6523C57.7665 51.6523 60.668 63.0688 43.2676 48.8018C43.2676 48.8018 34.566 54.5086 31.6673 68.7728C30.8642 72.7347 25.8672 68.7728 25.8672 54.5086C25.8644 40.2415 37.4646 23.1211 63.5667 23.1211Z" fill="#577CFF"/>
<circle cx="79.7236" cy="87.747" r="1.07713" fill="#FF9494"/>
<circle cx="81.3393" cy="90.4409" r="0.538564" fill="#FF9494"/>
<circle cx="79.1841" cy="93.6723" r="1.61569" fill="#FF9494"/>
<circle cx="84.0322" cy="94.2099" r="1.07713" fill="#FF9494"/>
<circle cx="86.7231" cy="90.4399" r="1.61569" fill="#FF9494"/>
<defs>
<linearGradient id="paint0_linear_4741_2341" x1="63.5668" y1="0" x2="63.5668" y2="125.665" gradientUnits="userSpaceOnUse">
<stop stop-color="#AFC1DC"/>
<stop offset="1" stop-color="#E2E5ED"/>
</linearGradient>
</defs>
</svg>

<svg id="Layer_1" data-name="Layer 1" xmlns="http://www.w3.org/2000/svg" xmlns:xlink="http://www.w3.org/1999/xlink" viewBox="0 0 125.67 125.67"><defs><style>.cls-1{fill:url(#linear-gradient);}.cls-2{fill:#f7dece;}.cls-3{fill:#c1694f;}.cls-4{fill:#662113;}.cls-5{fill:#319966;}.cls-6{fill:#ff9494;}</style><linearGradient id="linear-gradient" x1="63.57" y1="128" x2="63.57" y2="2.33" gradientTransform="matrix(1, 0, 0, -1, -0.73, 128)" gradientUnits="userSpaceOnUse"><stop offset="0" stop-color="#afc1dc"/><stop offset="1" stop-color="#e2e5ed"/></linearGradient></defs><title>Dermatologist</title><circle class="cls-1" cx="62.83" cy="62.83" r="62.83"/><path class="cls-2" d="M78.73,46.33C67.42,46.33,43,43.38,43,43.38s-4.89,5.39-7.72,8.21C30,56.86,30.42,63.53,29.72,71.85c.87,23.11,15.67,41.53,33.85,41.53S96.39,95.17,97.41,72.23C96.41,62,89.5,46.33,78.73,46.33Z" transform="translate(-0.73)"/><path class="cls-3" d="M63.57,102.07c-6.63,0-10.11-3.28-10.48-3.66a2.8,2.8,0,0,1-.84-2,2.85,2.85,0,0,1,.81-2,2.88,2.88,0,0,1,2-.84,2.82,2.82,0,0,1,2,.82,9.88,9.88,0,0,0,6.51,2c4.3,0,6.43-2,6.52-2a2.83,2.83,0,0,1,4,4C73.68,98.79,70.21,102.07,63.57,102.07ZM66.4,87.93H60.75a2.83,2.83,0,0,1,0-5.66H66.4a2.83,2.83,0,0,1,0,5.66Z" transform="translate(-0.73)"/><path class="cls-4" d="M49.43,76.62a2.82,2.82,0,0,1-2.82-2.83V68.13a2.83,2.83,0,0,1,5.65,0v5.66a2.83,2.83,0,0,1-2.83,2.83Zm28.28,0a2.82,2.82,0,0,1-2.82-2.83V68.13a2.83,2.83,0,0,1,5.65,0v5.66a2.83,2.83,0,0,1-2.83,2.83Z" transform="translate(-0.73)"/><path class="cls-5" d="M63.57,23.12c23.2,0,37.7,17.12,37.7,31.39s-2.91,20-5.8,14.26a130.76,130.76,0,0,1-5.8-14.24s-9.84,6.38-17.55-2.88c0,0,3,17.12-14.35,0,0,0,2.9,11.42-14.5-2.85,0,0-8.7,5.71-11.6,20-.81,4-5.8,0-5.8-14.26S37.46,23.12,63.57,23.12Z" transform="translate(-0.73)"/><circle class="cls-6" cx="78.99" cy="87.75" r="1.08"/><circle class="cls-6" cx="80.61" cy="90.44" r="0.54"/><circle class="cls-6" cx="78.45" cy="93.67" r="1.62"/><circle class="cls-6" cx="83.3" cy="94.21" r="1.08"/><circle class="cls-6" cx="85.99" cy="90.44" r="1.62"/></svg>
